svgs/light/quote-left.svg

<svg xmlns="http://www.w3.org/2000/svg" viewBox="0 0 448 512"><!--! Font Awesome Pro 6.6.0 by @fontawesome - https://fontawesome.com License - https://fontawesome.com/license (Commercial License) Copyright 2024 Fonticons, Inc. --><path d="M0 208C0 146.1 50.1 96 112 96l32 0c8.8 0 16 7.2 16 16s-7.2 16-16 16l-32 0c-44.2 0-80 35.8-80 80l0 24.6c9.4-5.4 20.3-8.6 32-8.6l64 0c35.3 0 64 28.7 64 64l0 64c0 35.3-28.7 64-64 64l-64 0c-35.3 0-64-28.7-64-64l0-32 0-32 0-80zm32 80l0 32 0 32c0 17.7 14.3 32 32 32l64 0c17.7 0 32-14.3 32-32l0-64c0-17.7-14.3-32-32-32l-64 0c-17.7 0-32 14.3-32 32zm352-32l-64 0c-17.7 0-32 14.3-32 32l0 32 0 32c0 17.7 14.3 32 32 32l64 0c17.7 0 32-14.3 32-32l0-64c0-17.7-14.3-32-32-32zM256 320l0-32 0-80c0-61.9 50.1-112 112-112l32 0c8.8 0 16 7.2 16 16s-7.2 16-16 16l-32 0c-44.2 0-80 35.8-80 80l0 24.6c9.4-5.4 20.3-8.6 32-8.6l64 0c35.3 0 64 28.7 64 64l0 64c0 35.3-28.7 64-64 64l-64 0c-35.3 0-64-28.7-64-64l0-32z"/></svg>

<svg xmlns="http://www.w3.org/2000/svg" viewBox="0 0 448 512"><!--! Font Awesome Pro 6.4.2 by @fontawesome - https://fontawesome.com License - https://fontawesome.com/license (Commercial License) Copyright 2023 Fonticons, Inc. --><path d="M0 208C0 146.1 50.1 96 112 96h32c8.8 0 16 7.2 16 16s-7.2 16-16 16H112c-44.2 0-80 35.8-80 80v24.6c9.4-5.4 20.3-8.6 32-8.6h64c35.3 0 64 28.7 64 64v64c0 35.3-28.7 64-64 64H64c-35.3 0-64-28.7-64-64V320 288 208zm32 80v32 32c0 17.7 14.3 32 32 32h64c17.7 0 32-14.3 32-32V288c0-17.7-14.3-32-32-32H64c-17.7 0-32 14.3-32 32zm352-32H320c-17.7 0-32 14.3-32 32v32 32c0 17.7 14.3 32 32 32h64c17.7 0 32-14.3 32-32V288c0-17.7-14.3-32-32-32zM256 320V288 208c0-61.9 50.1-112 112-112h32c8.8 0 16 7.2 16 16s-7.2 16-16 16H368c-44.2 0-80 35.8-80 80v24.6c9.4-5.4 20.3-8.6 32-8.6h64c35.3 0 64 28.7 64 64v64c0 35.3-28.7 64-64 64H320c-35.3 0-64-28.7-64-64V320z"/></svg>
